X: 305706
M: 2/4
L: 1/16
K: C
c2c2 dcde | c2G2G2 g2 | e2c2c2 Bc | dcBA G2 ~g2 |\
a2A2 agfe | f2d2d2 g2 | e2c2d2B2 | c2c2c2 H|]
d2d2 dedc | B2G2 G4 | g4 d2c2 | dcBA G2GG |\
c2GG d2GG | g4 agfe | d2d2 BABd | d4 "^D.C."c2 |]


